lib/logo_tmp/nrk-logo-nrk-sapmi.svg

<svg width="101" height="23" viewBox="0 0 101 23" fill="none" xmlns="http://www.w3.org/2000/svg">
<path d="M6.10352e-05 18.3333V4.3346H4.59345V18.3333H6.10352e-05ZM10.8428 6.56258L13.4845 18.3333H8.45743L5.30313 4.3346H8.1226C8.76913 4.32621 9.39647 4.55412 9.88698 4.97545C10.3783 5.37911 10.7158 5.93948 10.8428 6.56258ZM14.1745 18.3333V4.3346H18.7679V18.3333H14.1745ZM22.2373 9.65812C21.7423 9.66294 21.2553 9.53343 20.828 9.28346C20.4065 9.03981 20.0563 8.68962 19.8127 8.26803C19.5625 7.84072 19.4329 7.35355 19.4379 6.85837C19.4322 6.3662 19.5618 5.88194 19.8127 5.4585C20.0589 5.04149 20.4087 4.69511 20.828 4.45294C21.2554 4.20325 21.7423 4.07377 22.2373 4.07828C22.7293 4.07298 23.2134 4.20258 23.637 4.45294C24.0521 4.69723 24.3982 5.04332 24.6424 5.4585C24.893 5.88206 25.0226 6.36624 25.0173 6.85837C25.0219 7.35352 24.8924 7.8406 24.6424 8.26803C24.4007 8.68777 24.0543 9.03766 23.637 9.28346C23.2133 9.53431 22.7289 9.66394 22.2366 9.65812H22.2373ZM25.727 18.3333V4.3346H30.3208V18.3333H25.727ZM36.1361 11.9846C36.149 11.9982 36.2475 12.1592 36.4318 12.4676C36.616 12.7761 36.8558 13.1705 37.1513 13.6507C37.447 14.1307 37.7591 14.64 38.0874 15.1787C38.4158 15.7174 38.7248 16.2268 39.0144 16.7067C39.3028 17.1867 39.6314 17.7289 40.0001 18.3333H34.9532C34.6376 17.8207 34.3516 17.3574 34.0953 16.9433C33.839 16.5293 33.5666 16.0823 33.2779 15.6026C32.9885 15.1233 32.7024 14.6566 32.4196 14.2027C32.1368 13.7488 31.8938 13.3512 31.6905 13.0099C31.4864 12.6684 31.345 12.4383 31.2663 12.3198C31.0714 12.0257 30.956 11.686 30.9315 11.334C30.9511 10.9961 31.0598 10.6695 31.2466 10.3873C31.3255 10.2559 31.4701 10.0225 31.6803 9.68732C31.8906 9.35214 32.1371 8.95456 32.4196 8.49451C32.7022 8.03446 32.9883 7.56454 33.2779 7.08477C33.5675 6.605 33.8399 6.15477 34.0953 5.73416C34.352 5.31398 34.638 4.84735 34.9532 4.33428H40.0001L36.0963 10.7027C35.9755 10.8918 35.9074 11.1097 35.8991 11.334C35.9121 11.5694 35.9943 11.7957 36.1354 11.9846H36.1361Z" fill="white"/>
<path d="M53.8393 11.7702C53.5549 11.4767 53.2249 11.2324 52.8626 11.0472C52.4827 10.8522 52.0874 10.6899 51.6808 10.5619C51.2636 10.4298 50.8339 10.3175 50.3916 10.2248C50.0526 10.1458 49.7368 10.0667 49.4443 9.98743C49.1754 9.91706 48.9137 9.82078 48.6629 9.69989C48.4473 9.5964 48.2469 9.46308 48.0675 9.30374C47.8984 9.15263 47.7676 8.96249 47.6862 8.74941C47.5961 8.49882 47.553 8.23333 47.5593 7.96665C47.5549 7.69052 47.5978 7.41573 47.6862 7.15452C47.7664 6.92409 47.9004 6.71676 48.0769 6.55034C48.2598 6.38053 48.4675 6.24036 48.6925 6.13472C48.9497 6.01583 49.2227 5.93572 49.5028 5.89699C49.8361 5.84884 50.1725 5.82568 50.5092 5.82767C50.8157 5.82828 51.1219 5.84471 51.4268 5.87688C51.7354 5.90954 52.042 5.95922 52.3452 6.02575C52.6396 6.09054 52.9299 6.17323 53.2145 6.27336C53.4809 6.36627 53.7391 6.48216 53.9861 6.6197L54.2596 4.87687C53.9818 4.72992 53.6907 4.61053 53.3903 4.52033C53.084 4.42811 52.7748 4.34875 52.4625 4.28228C52.1462 4.216 51.8267 4.16653 51.5053 4.13405C51.1797 4.10104 50.8477 4.08453 50.5092 4.08453C49.8184 4.07696 49.1294 4.15669 48.4581 4.32189C47.8866 4.46184 47.3465 4.71069 46.8665 5.05516C46.4242 5.37687 46.0682 5.80575 45.8312 6.30274C45.5783 6.86129 45.4548 7.47109 45.4699 8.0855C45.4587 8.56099 45.5349 9.03444 45.6945 9.48166C45.8345 9.85663 46.0507 10.1976 46.329 10.4823C46.6045 10.7609 46.9208 10.9948 47.2666 11.1756C47.6334 11.3673 48.0158 11.5265 48.4097 11.6514C48.8199 11.7834 49.2398 11.8957 49.6695 11.9881C50.0211 12.0671 50.3467 12.1496 50.6462 12.2357C50.9247 12.3135 51.1959 12.4162 51.4565 12.5427C51.6807 12.6501 51.8881 12.7902 52.0722 12.9587C52.2466 13.1249 52.3831 13.3277 52.4723 13.553C52.576 13.8243 52.6259 14.1138 52.6191 14.4047C52.6242 14.7141 52.578 15.0221 52.4824 15.3159C52.3966 15.57 52.264 15.8053 52.0916 16.0092C51.9184 16.2102 51.7054 16.3721 51.4666 16.4843C51.1967 16.6104 50.9106 16.6972 50.6168 16.7421C50.2583 16.7979 49.8959 16.8244 49.5331 16.8214C49.1804 16.8205 48.8282 16.7973 48.4783 16.752C48.1137 16.7058 47.7489 16.643 47.3841 16.5635C47.0248 16.4859 46.6696 16.39 46.3199 16.2763C45.9743 16.1647 45.6455 16.0492 45.3334 15.93L45.5874 17.891C45.9203 18.017 46.2594 18.126 46.6031 18.2175C46.9151 18.3006 47.2312 18.3667 47.5501 18.4156C47.8562 18.4616 48.1623 18.4979 48.4685 18.5245C48.7748 18.5512 49.0839 18.5644 49.396 18.5641C50.0953 18.5685 50.793 18.4955 51.4767 18.3462C52.0818 18.2175 52.6579 17.9757 53.1757 17.6332C53.6591 17.3089 54.0499 16.8614 54.309 16.3357C54.5942 15.713 54.7312 15.0311 54.7091 14.3449C54.7198 13.8337 54.6439 13.3244 54.4848 12.8392C54.3482 12.4398 54.128 12.0751 53.8393 11.7702Z" fill="white"/>
<path d="M65.5299 17.0986C65.3871 17.1119 65.2432 17.09 65.1106 17.0348C64.9779 16.9797 64.8603 16.8928 64.7678 16.7817C64.5867 16.4643 64.5114 16.0961 64.5532 15.7318L64.5919 11.6513C64.5963 11.2235 64.5437 10.7971 64.4357 10.3836C64.341 10.0208 64.1822 9.67836 63.9669 9.37303C63.7496 9.07466 63.4737 8.82513 63.1566 8.64013C62.7879 8.42814 62.3894 8.2746 61.9749 8.18485C61.4679 8.07384 60.9503 8.0207 60.4317 8.02639C60.0202 8.02608 59.609 8.05244 59.2008 8.1053C58.8152 8.15476 58.4334 8.23095 58.0581 8.3334C57.7101 8.42904 57.3676 8.5448 57.0326 8.68006L56.7982 10.3638C57.1237 10.2452 57.4334 10.1462 57.726 10.0666C58.0187 9.98707 58.3022 9.92138 58.5757 9.86856C58.8438 9.81671 59.1146 9.78045 59.3867 9.75995C59.6532 9.74014 59.9168 9.73011 60.1775 9.72989C60.5758 9.72133 60.9734 9.768 61.3592 9.86856C61.6409 9.94009 61.8998 10.0834 62.1116 10.2849C62.3001 10.4807 62.4347 10.7231 62.5022 10.9881C62.5856 11.3146 62.625 11.6511 62.6195 11.9884L62.6172 12.4853L60.3344 12.6421C59.5535 12.6642 58.7841 12.8389 58.0685 13.1567C57.533 13.3944 57.0706 13.7742 56.7301 14.2561C56.4413 14.685 56.2881 15.1927 56.2907 15.712C56.287 16.1994 56.4047 16.6799 56.6328 17.1089C56.8716 17.5494 57.2311 17.9104 57.6678 18.1485C58.2007 18.4296 58.7961 18.5661 59.3964 18.5447C59.9588 18.5577 60.5187 18.4638 61.047 18.2677C61.5037 18.0865 61.9216 17.8174 62.2776 17.4753C62.413 17.344 62.5413 17.2055 62.6621 17.0603C62.7 17.2655 62.7716 17.4628 62.8737 17.644C63.0477 17.9473 63.3153 18.184 63.6352 18.3175C63.9889 18.4616 64.3675 18.5323 64.7486 18.5255C64.8661 18.5255 64.9797 18.5219 65.0904 18.5156C65.1991 18.509 65.307 18.4923 65.4127 18.4657C65.5169 18.4393 65.6113 18.4166 65.6959 18.3964C65.7725 18.3793 65.8476 18.3561 65.9206 18.3271L66.1355 17.0003C66.0277 17.0377 65.9166 17.0642 65.8037 17.0795C65.7129 17.0915 65.6215 17.0979 65.5299 17.0986ZM62.2773 16.2072C62.0655 16.3771 61.8363 16.5233 61.5936 16.6434C61.3518 16.7624 61.0958 16.849 60.8319 16.9009C60.5583 16.9542 60.2803 16.9806 60.0017 16.9798C59.6834 16.9892 59.3669 16.9284 59.0741 16.8015C58.8357 16.6968 58.6345 16.5206 58.4976 16.2967C58.3623 16.0593 58.2947 15.7884 58.3023 15.5143C58.2834 15.1839 58.3728 14.8565 58.5565 14.583C58.7691 14.3313 59.0572 14.1573 59.3766 14.0878C59.8757 13.9688 60.3877 13.9156 60.9002 13.9296H62.6106L62.6022 15.8956C62.5028 16.0085 62.3941 16.113 62.2773 16.2072Z" fill="white"/>
<path d="M63.5177 3.31201H61.4084L59.7481 6.85771H61.272L63.5177 3.31201Z" fill="white"/>
<path d="M75.5013 8.65033C74.8002 8.21506 73.9886 7.9981 73.1671 8.02636C72.6795 8.02883 72.1941 8.0919 71.7216 8.2142C71.2111 8.34604 70.7189 8.54247 70.2566 8.79888C70.1648 8.84939 70.074 8.90551 69.9828 8.9623V8.04615L67.9908 8.36311V22.506H69.9828V18.0712C69.9962 18.0768 70.0086 18.0831 70.0223 18.089C70.3832 18.2408 70.76 18.3505 71.1454 18.4159C71.6005 18.492 72.0612 18.5284 72.5225 18.5248C73.4019 18.5402 74.269 18.3142 75.0322 17.8708C75.7818 17.4203 76.391 16.7648 76.7902 15.9794C77.2512 15.0428 77.4759 14.0049 77.4442 12.9586C77.4627 12.074 77.2929 11.1957 76.9465 10.3836C76.6409 9.6758 76.1387 9.07355 75.5013 8.65033ZM74.9837 15.2762C74.749 15.8022 74.3558 16.2391 73.8606 16.5238C73.3101 16.8163 72.6944 16.9597 72.0733 16.9401C71.7757 16.9404 71.4785 16.917 71.1844 16.8705C70.8759 16.8207 70.5721 16.7446 70.2762 16.643C70.1824 16.61 70.0808 16.5724 69.9832 16.5361V10.2848C70.0092 10.2726 70.0359 10.2568 70.0616 10.2449C70.3481 10.1128 70.6151 10.0005 70.8625 9.90782C71.0968 9.81906 71.3388 9.75275 71.5853 9.70975C71.8045 9.67147 72.0265 9.65157 72.249 9.6503C72.8513 9.63002 73.449 9.76282 73.9878 10.0366C74.4587 10.2966 74.8274 10.7125 75.0325 11.2148C75.281 11.8577 75.3974 12.5452 75.3747 13.2353C75.3954 13.9366 75.2619 14.6338 74.9837 15.2762Z" fill="white"/>
<path d="M93.3639 8.44237C92.8313 8.14911 92.2311 8.00549 91.6254 8.02639C91.0997 8.02496 90.5777 8.1154 90.0823 8.29378C89.5792 8.47653 89.1053 8.73341 88.6759 9.05611C88.4326 9.23905 88.2011 9.43751 87.9828 9.65033C87.7827 9.15441 87.4296 8.73748 86.9765 8.46184C86.4373 8.16737 85.8305 8.02389 85.2185 8.04618C84.6962 8.04628 84.1776 8.13663 83.6852 8.31329C83.1798 8.49373 82.7028 8.74734 82.269 9.0663C82.1287 9.16864 81.9926 9.2799 81.8588 9.39644V8.04751L79.8664 8.34464V18.3479H81.8588V10.8111C82.0934 10.6551 82.3382 10.5153 82.5913 10.3925C82.9011 10.2438 83.2251 10.1275 83.5582 10.0455C83.865 9.96889 84.1798 9.9291 84.4958 9.92699C84.786 9.91798 85.075 9.96849 85.3455 10.0755C85.5692 10.1717 85.7669 10.3211 85.9217 10.511C86.0914 10.732 86.2084 10.9897 86.2635 11.2641C86.3397 11.6185 86.3758 11.9806 86.371 12.3433V18.3456H88.3634V11.9273C88.3647 11.5484 88.3395 11.1699 88.2878 10.7946C88.5138 10.6444 88.7477 10.5068 88.9885 10.3826C89.293 10.2269 89.6141 10.1073 89.9456 10.0261C90.2589 9.94807 90.5801 9.90803 90.9027 9.90685C91.1896 9.89989 91.4751 9.9505 91.7427 10.0558C91.9705 10.1498 92.1717 10.2995 92.3286 10.4915C92.4985 10.7122 92.6156 10.9699 92.6704 11.2443C92.7466 11.5988 92.7827 11.961 92.7779 12.3238V18.3456H94.7703V11.9078C94.7954 11.1587 94.676 10.4118 94.4187 9.70909C94.2159 9.17957 93.8447 8.73382 93.3639 8.44237Z" fill="white"/>
<path d="M97.7198 18.3466H99.7122V8.0462L97.7198 8.34333V18.3466Z" fill="white"/>
<path d="M99.9075 4.39124C99.7915 4.18806 99.6269 4.01776 99.4289 3.89603C99.2262 3.77045 98.9927 3.70532 98.7551 3.70815C98.5146 3.70611 98.278 3.77112 98.0714 3.89603C97.8677 4.01696 97.6966 4.18707 97.5733 4.39124C97.4494 4.59697 97.3851 4.83388 97.3877 5.07494C97.3857 5.31892 97.4499 5.55874 97.5733 5.76822C97.6925 5.97559 97.8646 6.14664 98.0714 6.26343C98.28 6.38252 98.5158 6.444 98.7551 6.44172C98.9915 6.4448 99.2242 6.3832 99.4289 6.26343C99.63 6.14574 99.7955 5.97448 99.9075 5.76822C100.025 5.55671 100.086 5.31765 100.083 5.07494C100.086 4.83517 100.025 4.59905 99.9075 4.39124Z" fill="white"/>
</svg>

<svg xmlns="http://www.w3.org/2000/svg" viewBox="0 0 101 23"><path fill="#fff" d="M0 18.333V4.335h4.593v13.998H0Zm10.843-11.77 2.642 11.77H8.457L5.303 4.335h2.82a2.655 2.655 0 0 1 1.764.64c.491.404.829.964.956 1.588Zm3.332 11.77V4.335h4.593v13.998h-4.594Zm8.062-8.675a2.779 2.779 0 0 1-2.425-1.39 2.735 2.735 0 0 1-.374-1.41 2.685 2.685 0 0 1 .375-1.4 2.813 2.813 0 0 1 3.824-1.005c.415.244.761.59 1.005 1.005.251.424.38.908.375 1.4.005.496-.125.983-.375 1.41a2.8 2.8 0 0 1-1.005 1.015c-.424.251-.908.38-1.4.375Zm3.49 8.675V4.335h4.594v13.998h-4.594Zm10.41-6.348c.012.013.11.174.295.483.184.308.424.703.72 1.183a373.133 373.133 0 0 1 1.862 3.056c.289.48.617 1.022.986 1.626h-5.047c-.315-.512-.601-.976-.858-1.39-.256-.414-.528-.86-.817-1.34-.29-.48-.576-.946-.858-1.4a71.148 71.148 0 0 1-.73-1.193 20.758 20.758 0 0 0-.424-.69 2.041 2.041 0 0 1-.334-.986c.02-.338.128-.665.315-.947.079-.131.223-.364.433-.7a212.331 212.331 0 0 0 1.598-2.603l.817-1.35.858-1.4H40l-3.904 6.369c-.12.189-.189.407-.197.631.013.235.095.462.236.65h.001ZM53.84 11.77a3.715 3.715 0 0 0-.977-.723 7.557 7.557 0 0 0-1.182-.485 13.318 13.318 0 0 0-1.29-.337 27.46 27.46 0 0 1-.947-.238 4.316 4.316 0 0 1-.781-.287 2.574 2.574 0 0 1-.595-.396c-.17-.151-.3-.342-.382-.555a2.163 2.163 0 0 1-.127-.782c-.004-.276.039-.551.127-.812.08-.23.214-.438.39-.605.184-.17.392-.31.617-.415.257-.12.53-.2.81-.238a6.76 6.76 0 0 1 1.006-.07c.307.001.613.018.918.05.308.033.615.082.918.149.295.065.585.147.87.247.266.093.524.21.771.347l.274-1.743a4.83 4.83 0 0 0-.87-.357 11.575 11.575 0 0 0-.928-.238 9.155 9.155 0 0 0-.957-.148 9.87 9.87 0 0 0-.996-.05 8.206 8.206 0 0 0-2.05.238 4.61 4.61 0 0 0-1.593.733c-.442.322-.798.75-1.035 1.248a4.08 4.08 0 0 0-.361 1.782c-.011.476.065.95.224 1.397.14.375.357.716.635 1 .276.279.592.513.938.694.366.191.749.35 1.143.475.41.132.83.245 1.26.337.351.08.677.162.976.248.279.077.55.18.81.307.225.107.432.247.616.416.175.166.311.369.4.594.104.271.154.56.147.852.005.31-.041.617-.137.91-.085.255-.218.49-.39.694a1.882 1.882 0 0 1-.625.475c-.27.126-.556.213-.85.258-.359.056-.721.082-1.084.08a8.38 8.38 0 0 1-1.055-.07c-.364-.046-.73-.109-1.094-.188a10.85 10.85 0 0 1-1.064-.288 19.942 19.942 0 0 1-.987-.346l.254 1.961c.333.126.672.235 1.016.327.312.083.628.149.947.198.306.046.612.082.919.108.306.027.615.04.927.04.7.005 1.397-.069 2.08-.218a4.944 4.944 0 0 0 1.7-.713 3.339 3.339 0 0 0 1.133-1.297 4.439 4.439 0 0 0 .4-1.991 4.53 4.53 0 0 0-.224-1.506 2.937 2.937 0 0 0-.646-1.069ZM65.53 17.099a.879.879 0 0 1-.762-.317 1.723 1.723 0 0 1-.215-1.05l.039-4.08a4.82 4.82 0 0 0-.156-1.268 3.122 3.122 0 0 0-.47-1.011 2.663 2.663 0 0 0-.81-.733 4.12 4.12 0 0 0-1.181-.455 6.862 6.862 0 0 0-1.543-.159 9.53 9.53 0 0 0-1.231.08c-.386.049-.768.125-1.143.227-.348.096-.69.212-1.025.347l-.235 1.684a11.665 11.665 0 0 1 1.778-.495c.268-.052.539-.089.81-.109.267-.02.53-.03.791-.03.399-.009.796.038 1.182.139.282.071.54.214.753.416.188.196.323.438.39.703.084.327.123.663.117 1l-.002.497-2.283.157a6 6 0 0 0-2.266.515 3.259 3.259 0 0 0-1.338 1.1 2.584 2.584 0 0 0-.44 1.455 2.93 2.93 0 0 0 .343 1.397c.239.44.598.801 1.035 1.04a3.44 3.44 0 0 0 1.728.396 4.447 4.447 0 0 0 1.651-.277c.457-.181.875-.45 1.23-.793.136-.131.264-.27.385-.415.038.206.11.403.212.584.174.303.441.54.761.674.354.144.733.214 1.114.207.117 0 .23-.003.341-.01.11-.006.217-.023.323-.05l.283-.069c.076-.017.152-.04.225-.069L66.135 17a1.714 1.714 0 0 1-.331.08c-.091.012-.183.018-.274.019Zm-3.253-.892c-.212.17-.44.316-.683.436a3.064 3.064 0 0 1-.762.258c-.274.053-.552.08-.83.079a2.17 2.17 0 0 1-.928-.178 1.28 1.28 0 0 1-.576-.505 1.497 1.497 0 0 1-.196-.783c-.019-.33.07-.657.255-.931.212-.252.5-.426.82-.495a5.876 5.876 0 0 1 1.523-.158h1.71l-.008 1.966a2.65 2.65 0 0 1-.325.311ZM63.518 3.312h-2.11l-1.66 3.546h1.524l2.246-3.546ZM75.501 8.65a4.153 4.153 0 0 0-2.334-.624 5.887 5.887 0 0 0-1.445.188 6.235 6.235 0 0 0-1.74.748v-.916l-1.991.317v14.143h1.992v-4.435l.04.018c.36.152.737.262 1.122.327.456.076.916.112 1.377.109.88.015 1.747-.21 2.51-.654a4.677 4.677 0 0 0 1.758-1.892 6.403 6.403 0 0 0 .654-3.02 6.233 6.233 0 0 0-.498-2.575 3.966 3.966 0 0 0-1.445-1.734Zm-.517 6.626a2.712 2.712 0 0 1-1.123 1.248 3.568 3.568 0 0 1-1.788.416 5.491 5.491 0 0 1-1.797-.297c-.094-.033-.195-.07-.293-.107v-6.251c.026-.012.053-.028.079-.04.286-.132.553-.244.8-.337a3.962 3.962 0 0 1 1.387-.258c.602-.02 1.2.113 1.739.387.47.26.84.675 1.044 1.178.249.643.365 1.33.343 2.02a4.782 4.782 0 0 1-.391 2.041ZM93.364 8.442a3.363 3.363 0 0 0-1.739-.416 4.518 4.518 0 0 0-1.543.268c-.503.183-.977.44-1.406.762a7.14 7.14 0 0 0-.693.594 2.473 2.473 0 0 0-1.007-1.188 3.408 3.408 0 0 0-1.757-.416c-.523 0-1.041.09-1.534.267a5.53 5.53 0 0 0-1.826 1.083V8.048l-1.993.297v10.003h1.993V10.81a6.25 6.25 0 0 1 .732-.418c.31-.15.634-.266.967-.348a3.98 3.98 0 0 1 .938-.118c.29-.009.579.041.85.149.223.096.42.245.576.435.17.221.286.479.341.753.077.354.113.717.108 1.08v6.002h1.992v-6.419a8.097 8.097 0 0 0-.075-1.132c.226-.15.46-.288.7-.412.305-.156.626-.276.958-.357a4.02 4.02 0 0 1 .957-.12c.287-.006.572.044.84.15.228.094.429.244.586.436.17.22.287.478.341.752.077.355.113.717.108 1.08v6.022h1.992v-6.438a5.828 5.828 0 0 0-.351-2.199 2.543 2.543 0 0 0-1.055-1.267ZM97.72 18.347h1.992v-10.3l-1.992.296v10.004ZM99.907 4.391a1.39 1.39 0 0 0-.478-.495 1.25 1.25 0 0 0-.674-.188 1.3 1.3 0 0 0-.684.188c-.203.121-.374.291-.498.495a1.298 1.298 0 0 0-.185.684c-.002.244.062.484.185.693a1.353 1.353 0 0 0 1.182.673 1.282 1.282 0 0 0 1.152-.673c.118-.211.179-.45.176-.693a1.356 1.356 0 0 0-.175-.684Z"/></svg>
